img/icons/icon-discount.svg

<svg xmlns="http://www.w3.org/2000/svg" width="59" height="72" fill="none">
  <path fill="#fff" fill-rule="evenodd" d="M58.34 21.2499c-.5665-.7424-1.4539-1.179-2.396-1.1786h-38.67l-2.475-7.2838H3.05798c-1.65685 0-2.9999966 1.3247-2.9999966 2.9589 0 1.6341 1.3431466 2.9589 2.9999966 2.9589H10.482l13.5 39.7331h25.159c1.6568 0 3-1.3247 3-2.9589 0-1.6341-1.3432-2.9589-3-2.9589H28.299l-1.726-5.0784h23.12c1.338-.0001 2.5144-.8739 2.884-2.1423l6.25-21.452c.2596-.8934.0793-1.8552-.487-2.598zm-7.781 9.5484h-4.81v-4.8092h6.211l-1.401 4.8092zm-17.617-4.8092v4.8082h6.807v-4.8082h-6.807zm6.807 10.727v4.8083h-6.807v-4.8083h6.807zm-12.807-5.9188v-4.8082h-7.657l1.634 4.8082h6.023zm-4.013 5.9188h4.013v4.8083h-2.379l-1.634-4.8083zm22.82 0v4.8083h1.685l1.401-4.8083h-3.086z" clip-rule="evenodd"/>
  <path fill="#fff" d="M27.406 71.8768c3.1928 0 5.781-2.5528 5.781-5.7018 0-3.1491-2.5882-5.7019-5.781-5.7019-3.1928 0-5.781 2.5528-5.781 5.7019 0 3.149 2.5882 5.7018 5.781 5.7018zM44.844 71.8768c3.1927 0 5.781-2.5528 5.781-5.7018 0-3.1491-2.5883-5.7019-5.781-5.7019-3.1928 0-5.781 2.5528-5.781 5.7019 0 3.149 2.5882 5.7018 5.781 5.7018zM29.335 10.5525l7.547 5.4167c.4358.3139.9824.4393 1.514.3474.5316-.0919 1.0024-.3932 1.304-.8346.646-.9232.43-2.2014-.48-2.8553l-2.373-1.7024 9.436-5.02027 4.628 11.84947h4.347L49.214 2.2774c-.207-.53589-.6348-.95998-1.177-1.16679-.5373-.202459-1.1375-.163187-1.643.1075l-13.248 7.0491-3.022-2.16888c-.8689-.6252-2.0844-.45468-2.742.38466L18.901 17.1331c-.1702.1819-.3073.3914-.405.6194h5.106l5.733-7.2z"/>
</svg>

<svg width="59" height="72" viewBox="0 0 59 72" fill="none" xmlns="http://www.w3.org/2000/svg">
<path fill-rule="evenodd" clip-rule="evenodd" d="M58.34 21.2499C57.7735 20.5075 56.8861 20.0709 55.944 20.0713H17.274L14.799 12.7875H3.05798C1.40113 12.7875 0.0579834 14.1122 0.0579834 15.7464C0.0579834 17.3805 1.40113 18.7053 3.05798 18.7053H10.482L23.982 58.4384H49.141C50.7978 58.4384 52.141 57.1137 52.141 55.4795C52.141 53.8454 50.7978 52.5206 49.141 52.5206H28.299L26.573 47.4422H49.693C51.031 47.4421 52.2074 46.5683 52.577 45.2999L58.827 23.8479C59.0866 22.9545 58.9063 21.9927 58.34 21.2499ZM50.559 30.7983H45.749V25.9891H51.96L50.559 30.7983ZM32.942 25.9891V30.7973H39.749V25.9891H32.942ZM39.749 36.7161V41.5244H32.942V36.7161H39.749ZM26.942 30.7973V25.9891H19.285L20.919 30.7973H26.942ZM22.929 36.7161H26.942V41.5244H24.563L22.929 36.7161ZM45.749 36.7161V41.5244H47.434L48.835 36.7161H45.749Z" fill="white"/>
<path d="M27.406 71.8768C30.5988 71.8768 33.187 69.324 33.187 66.175C33.187 63.0259 30.5988 60.4731 27.406 60.4731C24.2132 60.4731 21.625 63.0259 21.625 66.175C21.625 69.324 24.2132 71.8768 27.406 71.8768Z" fill="white"/>
<path d="M44.844 71.8768C48.0367 71.8768 50.625 69.324 50.625 66.175C50.625 63.0259 48.0367 60.4731 44.844 60.4731C41.6512 60.4731 39.063 63.0259 39.063 66.175C39.063 69.324 41.6512 71.8768 44.844 71.8768Z" fill="white"/>
<path d="M29.335 10.5525L36.882 15.9692C37.3178 16.2831 37.8644 16.4085 38.396 16.3166C38.9276 16.2247 39.3984 15.9234 39.7 15.482C40.346 14.5588 40.13 13.2806 39.22 12.6267L36.847 10.9243L46.283 5.90403L50.911 17.7535H55.258L49.214 2.2774C49.007 1.74151 48.5792 1.31742 48.037 1.11061C47.4997 0.908151 46.8995 0.947423 46.394 1.21811L33.146 8.26721L30.124 6.09833C29.2551 5.47313 28.0396 5.64365 27.382 6.48299L18.901 17.1331C18.7308 17.315 18.5937 17.5245 18.496 17.7525H23.602L29.335 10.5525Z" fill="white"/>
</svg>
